!!!!SEGMENT: pl-sa--95-a-ii-35--001_anonim--jesu-dulcedo-mentium.krn
!!!cenid: 17xx:1452
!!!COM: Anonim
!!!COM-rismID: pe30004985
!!!CDT:
!!!CNT:
!!!OTL: Jesu dulcedo mentium
!!!PDT:
!!!AGN:
!!!SMS-siglum: PL-SA
!!!SMS-shelfmark: 95/A II 35
!!!SMS-shelfwork: 001 W
!!!SMS-variant:
!!!SMS-altvar:
!!!NIFC-rismSourceID: 1001041183
!!!NIFC-rismChildID: 1001041183
!!!NIFC-islandoraID: none
!!!URL-pdf-islandora:
!!!URL-scan: https://bc.bdsandomierz.pl/dlibra/publication/1376/edition/1344/content @EN{Scan in the Sandomierz Diocese Digital Library} @PL{Skany w portalu Cyfrowa Biblioteka Diecezjalna w Sandomierzu}
!!!ONB-nifc: 1mus
!!!AIN: 1 organ 2 violn 1 vox
!!!key: C
**kern	**fba	**kern	**dynam	**kern	**dynam	**kern	**text	**dynam
*part4	*part4	*part3	*part3	*part2	*part2	*part1	*part1	*part1
*staff4	*	*staff3	*	*staff2	*	*staff1	*staff1	*
*Iorgan	*	*Ivioln	*	*Ivioln	*	*Ivox	*	*
*I"Organo	*	*I"Violino 2do	*	*I"Violino 1mo	*	*I"Canto	*	*
*I'Org.	*	*I'Vn II	*	*I'Vn I	*	*I'C.	*	*
*ICklav	*	*ICstr	*	*ICstr	*	*ICvox	*	*
*clefF4	*	*clefG2	*	*clefG2	*	*clefC1	*	*
*k[]	*	*k[]	*	*k[]	*	*k[]	*	*
*C:	*	*C:	*	*C:	*	*C:	*	*
*M4/4	*	*M4/4	*	*M4/4	*	*M4/4	*	*
*met(c)	*	*met(c)	*	*met(c)	*	*met(c)	*	*
*>[A,B,A]	*	*	*	*	*	*	*	*
=1	=1	=1	=1	=1	=1	=1	=1	=1
*>A	*	*	*	*	*	*	*	*
!LO:TX:b:rj:t=JeSu dulcedo	!	!LO:TX:b:rj:t=JeSu dulcedo	!	!LO:TX:b:rj:t=JeSu dulcedo	!	!	!	!
!LO:TX:rj:t=1.	!	!LO:TX:a:rj:t=Adagio	!	!LO:TX:a:rj:t=Adagio	!	!	!	!
!LO:TX:a:rj:t=Adagio	!	!LO:TX:rj:t=1mus	!	!LO:TX:rj:t=1mus	!	!LO:TX:t=1mus	!	!
8AA/L	.	[4a/	.	[>4a/	.	00r	.	.
8BB/	.	.	.	.	.	.	.	.
8C/	.	16a\LL]	.	16a\LL]	.	.	.	.
.	.	16cc\	.	16cc\	.	.	.	.
8BB/J	.	16ee\	.	16ee\	.	.	.	.
.	.	16aa\JJ	.	16aa\JJ	.	.	.	.
8AA/L	.	[4a/	.	[>4a/	.	.	.	.
8BB/	.	.	.	.	.	.	.	.
8C/	.	16a\LL]	.	16a\LL]	.	.	.	.
.	.	16cc\	.	16cc\	.	.	.	.
8D/J	.	16ee\	.	16ee\	.	.	.	.
.	.	16aa\JJ	.	16aa\JJ	.	.	.	.
=2	=2	=2	=2	=2	=2	=2	=2	=2
8E\L	.	[4e/	.	[4e/	.	.	.	.
8F#X\	.	.	.	.	.	.	.	.
8G#X\	.	16e/LL]	.	16e/LL]	.	.	.	.
.	.	16g#X/	.	16g#X/	.	.	.	.
8A\J	.	16b/	.	16b/	.	.	.	.
.	.	16ee/JJ	.	16ee/JJ	.	.	.	.
8E\L	.	[4e/	.	[4e/	.	.	.	.
8F#X\	.	.	.	.	.	.	.	.
8G#X\	.	16e/LL]	.	16e/LL]	.	.	.	.
.	.	16g#X/	.	16g#X/	.	.	.	.
8A\J	.	16b/	.	16b/	.	.	.	.
.	.	16ee/JJ	.	16ee/JJ	.	.	.	.
=3	=3	=3	=3	=3	=3	=3	=3	=3
8E\L	.	4e/	.	4e/	.	.	.	.
8F#X\	.	.	.	.	.	.	.	.
8G#X\	.	8r	.	8r	.	.	.	.
8E\J	.	8g#X/	.	8b\	.	.	.	.
4A\	-	4a/	.	(8cc\L	.	.	.	.
.	.	.	.	8ee\)	.	.	.	.
8r	.	8r	.	(8b\	.	.	.	.
8E\	#	8g#X/	.	8ee\J)	.	.	.	.
=4	=4	=4	=4	=4	=4	=4	=4	=4
4A\	-	4a/	.	(8cc\L	.	.	.	.
.	.	.	.	8ee\)	.	.	.	.
8r	.	8r	.	(8b\	.	.	.	.
8E\	#	8g#X/	.	8ee\J)	.	.	.	.
!LO:TX:t=P:problem=mixed beam	!	!	!	!LO:TX:t=P:problem=mixed beam	!	!	!	!
8A\L	.	8a\L	.	(16cc\LL	.	.	.	.
.	.	.	.	16ee\)	.	.	.	.
8D\	.	8cc\	.	16aa\	.	.	.	.
.	.	.	.	16a/JJ	.	.	.	.
8E\	.	8.b\	.	8.b/L	.	.	.	.
8EE/J	.	.	.	.	.	.	.	.
.	.	16b\Jk	.	16a/Jk	.	.	.	.
!	!	!LO:LB:g=original	!	!LO:LB:g=original	!	!	!	!
=5	=5	=5	=5	=5	=5	=5	=5	=5
8AA/L	.	4a/	.	4a/	.	0r	.	.
16C/L	.	.	.	.	.	.	.	.
16BB/JJ	.	.	.	.	.	.	.	.
8AA/L	.	8r	.	8r	.	.	.	.
8E/J	.	8g#X/	.	8b/	.	.	.	.
4A\	-	4a/	.	(8cc\L	.	.	.	.
.	.	.	.	8ee\)	.	.	.	.
8r	.	8r	.	(8b\	.	.	.	.
8E\	.	8g#X/	.	8ee\J)	.	.	.	.
!!LO:LB:g=original
=6	=6	=6	=6	=6	=6	=6	=6	=6
4A\	-	4a/	.	(8cc\L	.	.	.	.
.	.	.	.	8ee\)	.	.	.	.
8r	.	8r	.	(8b\	.	.	.	.
8E\	.	8g#X/	.	8ee\J)	.	.	.	.
!LO:TX:t=P:problem=mixed beam	!	!	!	!LO:TX:t=P:problem=mixed beam	!	!	!	!
8A\L	.	8a\L	.	16cc\LL	.	.	.	.
.	.	.	.	16ee\	.	.	.	.
8D\	.	8cc\	.	16aa\	.	.	.	.
.	.	.	.	16a/JJ	.	.	.	.
8E\	#	8.b\	.	8.b/L	.	.	.	.
8EE/J	.	.	.	.	.	.	.	.
.	.	16b\Jk	.	16b/Jk	.	.	.	.
=7	=7	=7	=7	=7	=7	=7	=7	=7
!	!	!	!LO:DY:a	!	!LO:DY:a	!	!	!
4AA/	.	4a/	p	4a/	p	4a\	Je-	.
4r	.	4A/	.	4a/	.	4a\	-su	.
2r	.	8r	.	8r	.	8r	.	.
.	.	8a/L	.	8cc\L	.	8cc\	dul-	.
.	.	8a/	.	8cc\	.	8cc\	-ce-	.
.	.	8a/J	.	8cc\J	.	8cc\	-do	.
=8	=8	=8	=8	=8	=8	=8	=8	=8
2r	.	8.g#X/L	.	8.b/L	.	(8.b\	men-	.
.	.	16g#/Jk	.	16b/Jk	.	16b\)	-ti-	.
.	.	4e/	.	4b/	.	4b\	-um	.
8r	.	2r	.	2r	.	8r	.	.
8A\L	.	.	.	.	.	8cc\	vix	.
8E\	#	.	.	.	.	8b\	au-	.
8F\J	.	.	.	.	.	8a\	-res	.
=9	=9	=9	=9	=9	=9	=9	=9	=9
4E\	#	4r	.	4r	.	8.b\	per-	.
.	.	.	.	.	.	16e/	-so-	.
4r	.	16e/LL	.	16e/LL	.	4e/	-nas	.
.	.	16g#X/	.	16g#X/	.	.	.	.
.	.	16b/	.	16b/	.	.	.	.
.	.	16ee/JJ	.	16ee/JJ	.	.	.	.
8r	.	4e/	.	4e/	.	8r	.	.
8A\L	.	.	.	.	.	8cc\	jam	.
8E\	#	4r	.	4r	.	8b\	Cor-	.
8F\J	.	.	.	.	.	8a\	-da	.
!	!	!	!	!	!	!LO:LB:g=original	!	!
=10	=10	=10	=10	=10	=10	=10	=10	=10
!	!	!LO:TX:t=1	!	!LO:TX:t=1	!	!	!	!
8E\L	.	1r	.	1r	.	8.b\	pe-	.
8F#X\	.	.	.	.	.	.	.	.
.	.	.	.	.	.	16e/	-ne-	.
8G#X\	.	.	.	.	.	8e/	-tras	.
8E\J	.	.	.	.	.	8b\	et	.
8Fn\L	.	.	.	.	.	4.a\	sau-	.
8E\	.	.	.	.	.	.	.	.
8F\	.	.	.	.	.	.	.	.
8D\J	6	.	.	.	.	16b\LL	-ci-	.
.	.	.	.	.	.	16a\JJ	.	.
=11	=11	=11	=11	=11	=11	=11	=11	=11
8E\L	.	4r	.	4r	.	4g#X/	-as	.
8F#X\	.	.	.	.	.	.	.	.
8G#X\	.	8r	.	8r	.	4r	.	.
8E\J	.	8g#X/	.	8b/	.	.	.	.
!	!	!LO:LB:g=original	!	!LO:LB:g=original 	!	!	!	!
4A\	-	4a/	.	(8cc\L	.	2r	.	.
.	.	.	.	8ee\)	.	.	.	.
8r	.	8r	.	(8b\	.	.	.	.
8E\	.	8g#X/	.	8ee\J)	.	.	.	.
=12	=12	=12	=12	=12	=12	=12	=12	=12
!	!	!	!	!	!	!LO:TX:t=1	!	!
4A\	-	4a/	.	(8cc\L	.	1r	.	.
.	.	.	.	8ee\)	.	.	.	.
8r	.	8r	.	(8b\	.	.	.	.
8E\	.	8g#X/	.	8ee\J)	.	.	.	.
!LO:LB:g=original	!	!	!	!	!	!	!	!
!LO:TX:t=P:problem=mixed beam	!	!	!	!LO:TX:t=P:problem=mixed beam	!	!	!	!
8A\L	.	8a\L	.	16cc\LL	.	.	.	.
.	.	.	.	16ee\	.	.	.	.
8D\	.	8cc\	.	16aa\	.	.	.	.
.	.	.	.	16a/JJ	.	.	.	.
8E\	#	8.b\	.	8.b/L	.	.	.	.
8EE/J	.	.	.	.	.	.	.	.
.	.	16b\Jk	.	16b/Jk	.	.	.	.
=13	=13	=13	=13	=13	=13	=13	=13	=13
!	!	!	!	!	!LO:DY:a	!	!	!
4AA/	.	4a/	.	4a/	p	4a\	Je-	.
4r	.	4A/	.	4a/	.	4a\	-su	.
2r	.	8r	.	8r	.	8r	.	.
.	.	8a/L	.	8cc\L	.	8cc\	dul-	.
.	.	8a/	.	8cc\	.	8cc\	-ce-	.
.	.	8a/J	.	8cc\J	.	8cc\	-do	.
=14	=14	=14	=14	=14	=14	=14	=14	=14
2r	.	8.g#X/L	.	8.b/L	.	8.b\	men-	.
.	.	16g#/Jk	.	16b/Jk	.	16b\	-ti-	.
.	.	4e/	.	4b/	.	4b\	-um	.
8r	.	2r	.	2r	.	8r	.	.
8A\L	.	.	.	.	.	8cc\	vix	.
8E\	#	.	.	.	.	8b\	au-	.
8F\J	.	.	.	.	.	8a\	-res	.
!	!	!	!	!	!	!LO:LB:g=original	!	!
=15	=15	=15	=15	=15	=15	=15	=15	=15
4E\	#	4r	.	4r	.	8.b\	per-	.
.	.	.	.	.	.	16e/	-so-	.
4r	.	16e/LL	.	16e/LL	.	4e/	-nas	.
.	.	16g#X/	.	16g#X/	.	.	.	.
.	.	16b/	.	16b/	.	.	.	.
.	.	16ee/JJ	.	16ee/JJ	.	.	.	.
8r	.	4e/	.	4e/	.	8r	.	.
8A\L	.	.	.	.	.	8cc\	jam	.
8E\	#	4r	.	4r	.	8b\	Cor-	.
8F\J	.	.	.	.	.	8a\	-da	.
=16	=16	=16	=16	=16	=16	=16	=16	=16
8E\L	.	0r	.	0r	.	8.b\	pe-	.
8F#X\	.	.	.	.	.	.	.	.
.	.	.	.	.	.	16e/	-ne-	.
8G#X\	.	.	.	.	.	(<8e/	-tras	.
8E\J	.	.	.	.	.	8b\)	et	.
8Fn\L	.	.	.	.	.	4.a\	sau-	.
8E\	.	.	.	.	.	.	.	.
8F\	.	.	.	.	.	.	.	.
8D\J	6	.	.	.	.	16b\LL	-ci-	.
.	.	.	.	.	.	16a\JJ	.	.
=17	=17	=17	=17	=17	=17	=17	=17	=17
8E\L	.	.	.	.	.	4g#X/	-as	.
8F#X\	.	.	.	.	.	.	.	.
8G#X\	.	.	.	.	.	4r	.	.
8E\J	.	.	.	.	.	.	.	.
8A\L	.	.	.	.	.	8cc\	I-	.
8B\	.	.	.	.	.	8cc\	.	.
8c\	.	.	.	.	.	8cc\	-pso	.
8A\J	.	.	.	.	.	8cc\	in	.
=18	=18	=18	=18	=18	=18	=18	=18	=18
8E\L	.	1r	.	1r	.	(8.b\	vul-	.
8F#X\	6\	.	.	.	.	.	.	.
.	.	.	.	.	.	16dd#X\)	-ne-	.
8G#X\	6	.	.	.	.	4ee\	-ra	.
8E\J	.	.	.	.	.	.	.	.
!	!	!	!	!	!	!LO:LB:g=original	!	!
8A\L	.	.	.	.	.	(4cc\	mel-	.
8B\J	.	.	.	.	.	.	.	.
!LO:LB:g=original	!	!	!	!	!	!	!	!
8c\L	.	.	.	.	.	8cc\	-le	.
8A\J	.	.	.	.	.	8cc\)	flu-	.
=19	=19	=19	=19	=19	=19	=19	=19	=19
8E\L	.	4r	.	4r	.	8.b\	-en-	.
8F#X\	.	.	.	.	.	.	.	.
.	.	.	.	.	.	16dd#X\	-ti-	.
8G#X\J	.	8r	.	8r	.	(8ee\	-a	.
*	*	*	*	*custos:a	*	*	*	*
8r	.	8g#X/	.	8g#X/	.	8b\)	flu-	.
!	!	!LO:LB:g=original	!	!LO:LB:g=original	!	!	!	!
2r	.	(16a/LL	.	(16a/LL	.	16cc\LL	-en-	.
!	!	!	!	!	!	!LO:SIC:s=16ddn	!	!
.	.	16b/)	.	16b/)	.	16dd#\	.	.
.	.	(16a/	.	(16a/	.	16cc\	.	.
!	!	!	!	!	!	!LO:SIC:s=16ddn	!	!
.	.	16b/JJ)	.	16b/JJ)	.	16dd#\JJ	.	.
.	.	(16a/LL	.	(16a/LL	.	16cc\LL	.	.
!	!	!	!	!	!	!LO:SIC:s=16ddn	!	!
.	.	16b/)	.	16b/)	.	16dd#\	.	.
.	.	(16a/	.	(16a/	.	16cc\	.	.
!	!	!	!	!	!	!LO:SIC:s=16ddn	!	!
.	.	16b/JJ)	.	16b/JJ)	.	16dd#\JJ	.	.
=20	=20	=20	=20	=20	=20	=20	=20	=20
!LO:TX:t=1	!	!	!	!	!	!	!	!
1r	.	8g#X/L	.	8g#X/L	.	8.b\	.	.
.	.	16e/L	.	16e/L	.	.	.	.
.	.	16f/JJ	.	16f/JJ	.	16e/	-ti-	.
.	.	8g#/L	.	8g#X/L	.	(8e/	-a	.
.	.	8e/J	.	8e/J	.	8ee\)	flu-	.
.	.	4a/	.	(16a/LL	.	16cc\LL	-en-	.
.	.	.	.	16b/)	.	16dd\	.	.
.	.	.	.	(16a/	.	16cc\	.	.
.	.	.	.	16b/JJ)	.	16dd\JJ	.	.
.	.	8r	.	(16a/LL	.	16cc\LL	.	.
.	.	.	.	16b/)	.	16dd\	.	.
.	.	8A/	.	(16a/	.	16cc\	.	.
.	.	.	.	16b/JJ)	.	16dd\JJ	.	.
=21	=21	=21	=21	=21	=21	=21	=21	=21
4r	.	4e/	.	8g#X/L	.	8.b\	.	.
.	.	.	.	16e/L	.	.	.	.
.	.	.	.	16f/JJ	.	16e/	-ti-	.
8r	.	8r	.	8g#/L	.	8e/	-a	.
!	!	!	!	!	!	!LO:LB:g=original	!	!
8E\	#	8g#X/	.	8e/J	.	8ee\	te	.
!LO:TX:t=P:problem=mixed beam	!	!	!	!	!	!	!	!
8A\L	.	8a/L	.	8a/L	.	4cc\	pro-	.
8D\	.	8d/	.	8d/	.	.	.	.
8E\	4	8.e/	.	8.e/	.	8b\L	-num	.
8EE/J	3	.	.	.	.	8a\J	.	.
.	.	16e/Jk	.	16e/Jk	.	.	.	.
=22	=22	=22	=22	=22	=22	=22	=22	=22
4AA/	.	8A/L	.	8A/L	.	4a\	das	.
.	.	16c/L	.	16c/L	.	.	.	.
.	.	16B/JJ	.	16B/JJ	.	.	.	.
4r	.	4A/	.	4A/	.	4r	.	.
!	!	!	!	!	!LO:DY:a	!	!	!LO:DY:a:t=Piano
2r	.	4a/	.	4cc\	p	4cc\	I-	p
.	.	8r	.	8cc\L	.	8cc\	-pse	.
.	.	8a/	.	8cc\J	.	8cc\	in	.
!	!	!	!	!LO:LB:g=original	!	!	!	!
=23	=23	=23	=23	=23	=23	=23	=23	=23
0r	.	4e/	.	8.b\L	.	8.b\	vul-	.
.	.	.	.	16dd#X\Jk	.	16dd#X\	-ne-	.
.	.	4r	.	4ee\	.	4ee\	-ra	.
.	.	4a/	.	4cc\	.	4cc\	mel-	.
.	.	8r	.	8cc\L	.	8cc\	-le	.
.	.	8a/	.	8cc\J	.	8cc\	flu-	.
!	!	!LO:LB:g=original	!	!	!	!	!	!
=24	=24	=24	=24	=24	=24	=24	=24	=24
.	.	4e/	.	8.b\L	.	8.b\	-en-	.
.	.	.	.	16dd#X\K	.	16dd#X\	-ti-	.
.	.	8r	.	8ee\	.	8ee\	-a	.
.	.	8e/	.	8b\J	.	8b\	flu-	.
.	.	(16a/LL	.	(16cc\LL	.	16cc\LL	-en-	.
!	!	!	!	!LO:SIC:s=16ddn	!	!LO:SIC:s=16ddn	!	!
.	.	16b/)	.	16dd#\)	.	16dd#\	.	.
.	.	(16a/	.	(16cc\	.	16cc\	.	.
!	!	!	!	!LO:SIC:s=16ddn	!	!LO:SIC:s=16ddn	!	!
.	.	16b/JJ)	.	16dd#\JJ)	.	16dd#\JJ	.	.
.	.	(16a/LL	.	(16cc\LL	.	16cc\LL	.	.
!	!	!	!	!LO:SIC:s=16ddn	!	!LO:SIC:s=16ddn	!	!
.	.	16b/)	.	16dd#\)	.	16dd#\	.	.
.	.	(16a/	.	(16cc\	.	16cc\	.	.
!	!	!	!	!LO:SIC:s=16ddn	!	!LO:SIC:s=16ddn	!	!
.	.	16b/JJ)	.	16dd#\JJ)	.	16dd#\JJ	.	.
!	!	!	!	!	!	!LO:LB:g=original	!	!
=25	=25	=25	=25	=25	=25	=25	=25	=25
!	!	!	!	!LO:TX:t=P:problem=mixed beam	!	!	!	!
1r	.	4g#X/	.	8.b/L	.	(8.b\	.	.
.	.	.	.	16e/K	.	16e/)	-ti-	.
.	.	8r	.	8e/	.	8e/	-a	.
.	.	8g#/	.	8ee\J	.	8ee\	flu-	.
.	.	(16a/LL	.	(16cc\LL	.	16cc\LL	-en-	.
.	.	16b/)	.	16dd\)	.	16dd\	.	.
.	.	(16a/	.	(16cc\	.	16cc\	.	.
.	.	16b/JJ)	.	16dd\JJ)	.	16dd\JJ	.	.
.	.	(16a/LL	.	(16cc\LL	.	16cc\LL	.	.
.	.	16b/)	.	16dd\)	.	16dd\	.	.
.	.	(16a/	.	(16cc\	.	16cc\	.	.
.	.	16b/JJ)	.	16dd\JJ)	.	16dd\JJ	.	.
=26	=26	=26	=26	=26	=26	=26	=26	=26
!	!	!LO:SIC:s=4g#	!	!LO:TX:t=P:problem=mixed beam	!	!	!	!
4r	.	4g/	.	8.b/L	.	(8.b\	.	.
.	.	.	.	16e/K	.	16e/)	-ti-	.
8r	.	8r	.	8e/	.	8e/	-a	.
!	!	!LO:SIC:s=8g#	!	!	!	!	!	!
8E\	#	8g/	.	8ee\J	.	8ee\	te	.
!LO:TX:t=P:problem=mixed beam	!	!	!	!	!	!	!	!
8A\L	.	8a/L	.	4cc\	.	4cc\	pro-	.
8D\	.	8d/	.	.	.	.	.	.
8E\	.	8.e/	.	8b/L	.	8b\L	-num	.
8EE/J	.	.	.	8a/J	.	8a\J	.	.
.	.	16e/Jk	.	.	.	.	.	.
=27	=27	=27	=27	=27	=27	=27	=27	=27
8AA/L	.	8a/L	.	8a/L	.	8a\	das	.
8D/	.	8d/	.	8d/	.	8b\	te	.
8E/	#	8.e/	.	8e/	.	8e/	pro-	.
8EE/J	.	.	.	8e/J	.	8g#X/	-nu(m)	.
.	.	16e/Jk	.	.	.	.	.	.
!	!	!	!	!LO:LB:g=original	!	!	!	!
!	!	!	!LO:DY:a:t=forte	!	!	!	!	!
8AA/L	.	[4a/	f	[4a/	.	4a\	das.	.
8BB/	.	.	.	.	.	.	.	.
8C/	.	16a\LL]	.	16a\LL]	.	4r	.	.
.	.	16cc\	.	16cc\	.	.	.	.
8BB/J	.	16ee\	.	16ee\	.	.	.	.
.	.	16aa\JJ	.	16aa\JJ	.	.	.	.
!	!	!LO:LB:g=original	!	!	!	!	!	!
=28	=28	=28	=28	=28	=28	=28	=28	=28
8AA/L	.	[4a/	.	[4a/	.	00r	.	.
8BB/	.	.	.	.	.	.	.	.
8C/	.	16a\LL]	.	16a\LL]	.	.	.	.
.	.	16cc\	.	16cc\	.	.	.	.
8D/J	.	16ee\	.	16ee\	.	.	.	.
.	.	16aa\JJ	.	16aa\JJ	.	.	.	.
!LO:LB:g=original	!	!	!	!	!	!	!	!
8E\L	.	[4e/	.	[4e/	.	.	.	.
8F#X\	.	.	.	.	.	.	.	.
8G#X\	.	16e/LL]	.	16e/LL]	.	.	.	.
.	.	16g#X/	.	16g#X/	.	.	.	.
8A\J	-	16b/	.	16b/	.	.	.	.
.	.	16ee/JJ	.	16ee/JJ	.	.	.	.
=29	=29	=29	=29	=29	=29	=29	=29	=29
8E\L	.	[4e/	.	[4e/	.	.	.	.
8F#X\	.	.	.	.	.	.	.	.
8G#X\	.	16e/LL]	.	16e/LL]	.	.	.	.
.	.	16g#X/	.	16g#X/	.	.	.	.
8A\J	.	16b/	.	16b/	.	.	.	.
.	.	16ee/JJ	.	16ee/JJ	.	.	.	.
8E\L	.	4e/	.	4e/	.	.	.	.
8F#X\	.	.	.	.	.	.	.	.
8G#X\	6	8r	.	8r	.	.	.	.
8E\J	.	8g#X/	.	8b/	.	.	.	.
=30	=30	=30	=30	=30	=30	=30	=30	=30
4A\	-	4a/	.	(8cc\L	.	.	.	.
.	.	.	.	8ee\)	.	.	.	.
8r	.	8r	.	(8b\	.	.	.	.
8E\	#	8g#X/	.	8ee\J)	.	.	.	.
4A\	.	4a/	.	(8cc\L	.	.	.	.
.	.	.	.	8ee\)	.	.	.	.
8r	.	8r	.	(8b\	.	.	.	.
8E\	#	8g#X/	.	8ee\J)	.	.	.	.
=31	=31	=31	=31	=31	=31	=31	=31	=31
!LO:TX:t=P:problem=mixed beam	!	!	!	!LO:TX:t=P:problem=mixed beam	!	!	!	!
8A\L	.	8a\L	.	16cc\LL	.	.	.	.
.	.	.	.	16ee\	.	.	.	.
8D\	.	8cc\	.	16aa\	.	.	.	.
.	.	.	.	16a/JJ	.	.	.	.
8E\	#	8.b\	.	8.b/L	.	.	.	.
8EE/J	.	.	.	.	.	.	.	.
.	.	16b\Jk	.	16b/Jk	.	.	.	.
8AA/L	.	4a/	.	4a/	.	.	.	.
16C/L	.	.	.	.	.	.	.	.
16BB/JJ	.	.	.	.	.	.	.	.
!LO:TX:t=P:problem=mixed beam	!	!	!	!	!	!	!	!
8AA/L	.	8r	.	8r	.	.	.	.
8E\J	.	8g#X/	.	8b/	.	.	.	.
!	!	!	!	!LO:LB:g=original	!	!	!	!
=32	=32	=32	=32	=32	=32	=32	=32	=32
4A\	.	4a/	.	(8cc\L	.	1r;>;<	.	.
.	.	.	.	8ee\)	.	.	.	.
8r	.	8r	.	(8b\	.	.	.	.
8E\	.	8g#X/	.	8ee\J)	.	.	.	.
4A\	.	4a/	.	(8cc\L	.	.	.	.
.	.	.	.	8ee\)	.	.	.	.
8r	.	8r	.	(8b\	.	.	.	.
!	!	!LO:LB:g=original	!	!	!	!	!	!
8E\	#	8g#X/	.	8ee\J)	.	.	.	.
!	!	!	!	!	!	!LO:LB:g=original	!	!
=33	=33	=33	=33	=33	=33	=33	=33	=33
!LO:TX:t=P:problem=mixed beam	!	!	!	!LO:TX:t=P:problem=mixed beam	!	!	!	!
8A\L	.	8a/L	.	16cc\LL	.	2r;<	.	.
.	.	.	.	16ee\	.	.	.	.
8D\	.	8cc/	.	16aa\	.	.	.	.
.	.	.	.	16a/JJ	.	.	.	.
8E\	.	8.b/	.	8.b/L	.	.	.	.
*custos:A	*	*	*	*	*	*	*	*
8EE/J	.	.	.	.	.	.	.	.
.	.	16b/Jk	.	16b/Jk	.	.	.	.
!LO:LB:g=original	!	!	!	!	!	!	!	!
!LO:TX:t=P:problem=mixed beam	!	!	!	!	!	!	!	!
!LO:TX:t=Finis	!	!LO:TX:t=Finis	!	!LO:TX:t=Finis	!	!	!	!
16AA;</LL	.	4a;</	.	4a;</	.	4r	.	.
16A\	.	.	.	.	.	.	.	.
16G\	.	.	.	.	.	.	.	.
16F\JJ	.	.	.	.	.	.	.	.
8E\L	.	4r	.	4r	.	8r	.	.
8D\J	.	.	.	.	.	8cc\	Hinc	.
=34||	=34||	=34||	=34||	=34||	=34||	=34||	=34||	=34||
*>B	*	*	*	*	*	*	*	*
8C/L	.	0r	.	0r	.	(16cc\LL	cor-	.
.	.	.	.	.	.	16b\JJ)	.	.
8D/	.	.	.	.	.	8cc\	-de	.
8E/	.	.	.	.	.	8cc\	de-	.
8D/J	.	.	.	.	.	8cc\	-li-	.
8C/L	.	.	.	.	.	8.cc\	-gen-	.
8D/	.	.	.	.	.	.	.	.
.	.	.	.	.	.	16ee\	-ti-	.
8E/	.	.	.	.	.	4cc\	-um	.
8C/J	.	.	.	.	.	.	.	.
=35	=35	=35	=35	=35	=35	=35	=35	=35
4F\	.	.	.	.	.	4a\	dul-	.
8r	.	.	.	.	.	8a\	-ci	.
8F\	.	.	.	.	.	8a\	de-	.
8C/L	.	.	.	.	.	8.g/	-li-	.
8D/	.	.	.	.	.	.	.	.
.	.	.	.	.	.	16b\	-qui-	.
8E/	.	.	.	.	.	8cc\	-o	.
8C/J	.	.	.	.	.	8cc\	in	.
=36	=36	=36	=36	=36	=36	=36	=36	=36
8F\L	.	1r	.	1r	.	4a\	gau-	.
8G\J	.	.	.	.	.	.	.	.
8A\L	.	.	.	.	.	8a\	-diſ	.
8F\J	.	.	.	.	.	8a\	.	.
8C/L	.	.	.	.	.	8.g/	pe-	.
8D/	.	.	.	.	.	.	.	.
.	.	.	.	.	.	16b\	-la-	.
!	!	!	!	!	!	!LO:LB:g=original	!	!
8E/	.	.	.	.	.	8cc\	-go	.
8C/J	.	.	.	.	.	8a\	a-	.
=37	=37	=37	=37	=37	=37	=37	=37	=37
!	!	!	!LO:DY:a	!	!LO:DY:a	!	!	!
0r	.	8f/L	p	8f/L	p	(4a\	-go-	.
.	.	8f/	.	8f/	.	.	.	.
.	.	8f/	.	8f/	.	4a\)	.	.
.	.	8f/J	.	8f/J	.	.	.	.
*	*	*	*	*	*	*2\right	*	*
.	.	8f/L	.	8f/L	.	2a\	-ni-	.
.	.	8f/	.	8f/	.	.	.	.
.	.	8f/	.	8f/	.	.	.	.
.	.	8f/J	.	8f/J	.	.	.	.
=38	=38	=38	=38	=38	=38	=38	=38	=38
.	.	8g#X/L	.	8e/L	.	4g#X/	-zant	.
.	.	8g#/	.	8e/	.	.	.	.
!	!	!	!	!	!	!	!	!LO:DY:a:t=Piano
.	.	8e/	.	8g#X/	.	4b\	a-	p
.	.	8e/J	.	8g#/J	.	.	.	.
.	.	8f/L	.	8a/L	.	(4cc\	-go-	.
.	.	8f/	.	8a/	.	.	.	.
.	.	8f/	.	8a/	.	4cc\)	-ni-	.
.	.	8f/J	.	8a/J	.	.	.	.
=39	=39	=39	=39	=39	=39	=39	=39	=39
2r	.	4e/	.	4g#X/	.	4b;\	-zant	.
.	.	4r	.	4r	.	4r	.	.
8C/L	.	2r	.	2r	.	8cc\	dum	.
8D/	.	.	.	.	.	8cc\	.	.
8E/	.	.	.	.	.	8cc\	Je-	.
8C/J	.	.	.	.	.	8ee\	-su	.
=40	=40	=40	=40	=40	=40	=40	=40	=40
!	!	!	!	!LO:TX:t=2	!	!	!	!
8G\L	.	0r	.	0r	.	8.dd\	No-	.
8A\	.	.	.	.	.	.	.	.
.	.	.	.	.	.	16dd\	-mi-	.
8B\	.	.	.	.	.	8dd\	-nis	.
8G\J	.	.	.	.	.	8dd\	.	.
!LO:LB:g=original	!	!	!	!	!	!	!	!
8A\L	.	.	.	.	.	4cc\	mil-	.
8G\	.	.	.	.	.	.	.	.
8A\	.	.	.	.	.	8cc\	-le	.
8D\J	.	.	.	.	.	8ee\	su-	.
=41	=41	=41	=41	=41	=41	=41	=41	=41
8G\L	.	.	.	.	.	8.dd\	-spi-	.
8A\	.	.	.	.	.	.	.	.
.	.	.	.	.	.	16dd\	-ris	.
8B\	.	.	.	.	.	8dd\	s	.
8G\J	.	.	.	.	.	8ff\	se	.
!	!	!	!	!	!	!LO:LB:g=original	!	!
!LO:TX:t=P:problem=mixed beam	!	!	!	!	!	!	!	!
8c\L	.	.	.	.	.	4ee\	sau-	.
8F\	.	.	.	.	.	.	.	.
8G\	.	.	.	.	.	(8dd\L	-ci-	.
8GG/J	.	.	.	.	.	8cc\J)	.	.
!	!	!	!	!LO:LB:g=original	!	!	!	!
=42	=42	=42	=42	=42	=42	=42	=42	=42
8C/L	.	2r	.	2r	.	8cc\	-ant	.
16E/L	.	.	.	.	.	8cc\	.	.
16D/JJ	.	.	.	.	.	.	.	.
4C/	.	.	.	.	.	4cc\	dum	.
2r	.	[4e/	.	[4cc\	.	4ryy	.	.
.	.	8e/L]	.	8cc\L]	.	8cc\	Je-	.
!	!	!	!	!	!	!LO:SIC:l:s=su	!	!
.	.	8b/J	.	8ee\J	.	8ee\	-zu	.
=43	=43	=43	=43	=43	=43	=43	=43	=43
!LO:TX:t=1	!	!	!	!	!	!	!	!
1r	.	8.b/L	.	8.dd\L	.	(8.dd\	No-	.
.	.	16b/Jk	.	16dd\K	.	16dd\)	-mi-	.
.	.	8g/L	.	8dd\	.	4dd\	-nis	.
.	.	8g/J	.	8dd\J	.	.	.	.
!	!	!LO:LB:g=original	!	!	!	!	!	!
.	.	4.e/	.	4.cc\	.	4cc\	mil-	.
.	.	.	.	.	.	8cc\	-le	.
.	.	8b/	.	8ee\	.	8ee\	su-	.
=44	=44	=44	=44	=44	=44	=44	=44	=44
4r	.	8.b/L	.	8.dd\L	.	8.dd\	-spi-	.
.	.	16b/Jk	.	16dd\K	.	16dd\	-ris	.
8r	.	8b/L	.	8dd\	.	8dd\L	s	.
8F\	.	8g/J	.	8ff\J	.	8ff\J	se	.
!LO:TX:t=P:problem=mixed beam	!	!	!	!	!	!	!	!
8c\L	.	8cc/L	.	4ee\	.	4ee\	sau-	.
8F\	.	8f/	.	.	.	.	.	.
8G\	.	8g/	.	8dd\L	.	8dd\L	-ci-	.
8GG/J	.	8G/J	.	8cc\J	.	8cc\J	.	.
=45	=45	=45	=45	=45	=45	=45	=45	=45
!LO:TX:t=P:problem=mixed beam	!	!	!	!	!	!	!	!
8C\L	.	8c/L	.	8cc\L	.	(8cc\	-ant	.
8F\	6 5	8f/	.	8dd\	.	8dd\)	se	.
8G\	x 4	8g/	.	8g\	.	8g/	sau-	.
8GG/J	x 3	8G/J	.	8b\J	.	8b\	-ci-	.
4C/	.	4c/	.	4cc\	.	4cc\	-ant.	.
!LO:TX:t=Da Capo ad finem	!	!LO:TX:t=Da capo \nad finem	!	!LO:TX:t=Da Capo ad finem	!	!	!	!
4r	.	4r	.	4r	.	4r	.	.
==	==	==	==	==	==	==	==	==
*-	*-	*-	*-	*-	*-	*-	*-	*-
!!!system-decoration: [s1,s2,s3,s4]
!!!RDF**kern: > = above
!!!RDF**kern: < = below
!!!RDF**dynam: p = Piano
!!!ENC: Kamil Watkowski
!!!END: 2020-12-06
!!!ENC: Leszek Kubiak
!!!END: 2022-03-28
!!!YEC: Copyright 2022 Narodowy Instytut Fryderyka Chopina (https://polishscores.org)
!!!YEM: License CC-BY-4.0 (https://creativecommons.org/licenses/by/4.0)
